<?xml version="1.0" encoding="UTF-8"?>
<map version="1.10" tiledversion="1.11.2" orientation="orthogonal" renderorder="right-down" width="24" height="20" tilewidth="16" tileheight="16" infinite="0" nextlayerid="6" nextobjectid="1">
 <tileset firstgid="1" source="../tileSets/ground.tsx"/>
 <tileset firstgid="129" source="../tileSets/ledges_and_rocks.tsx"/>
 <tileset firstgid="193" source="../tileSets/signs.tsx"/>
 <tileset firstgid="199" source="../tileSets/wood_fence_variants.tsx"/>
 <tileset firstgid="211" source="../tileSets/flora_masked.tsx"/>
 <tileset firstgid="307" source="../tileSets/water_animated.tsx"/>
 <tileset firstgid="371" source="../tileSets/flora_animated.tsx"/>
 <layer id="3" name="Ground" width="24" height="20">
  <data encoding="csv">
323,323,323,323,323,323,307,50,1,1,1,1,1,1,1,1,1,1,1,1,1,2,3,4,
323,307,307,307,307,307,51,50,17,17,17,17,17,17,17,17,17,17,17,1,1,2,3,4,
323,307,1,1,307,307,51,1,2,3,1,2,3,4,4,4,4,4,4,4,4,2,3,4,
323,307,1,1,307,307,51,33,33,4,4,4,4,4,4,20,20,4,20,20,20,2,3,4,
323,307,307,307,307,307,51,2,3,4,20,20,20,20,20,4,20,20,19,20,1,2,3,4,
323,307,307,307,307,307,49,2,3,4,1,17,18,19,20,20,4,4,20,20,4,4,4,4,
323,307,307,51,49,51,49,2,3,4,17,17,17,18,19,33,20,1,2,3,4,20,315,315,
323,307,307,49,50,20,1,2,3,4,20,17,18,19,17,33,33,1,1,1,33,3,315,315,
49,49,49,49,18,19,1,2,3,4,17,18,17,33,19,20,20,17,17,1,1,2,315,315,
17,18,1,17,18,19,17,1,2,3,4,4,1,33,17,18,19,20,4,17,1,2,315,315,
65,65,65,65,65,67,68,65,65,66,3,4,2,3,1,17,18,19,20,4,1,2,315,315,
65,65,67,68,65,65,65,65,65,66,2,3,4,3,1,1,17,33,19,20,1,2,315,315,
18,1,2,3,17,18,19,20,17,1,1,1,2,3,4,1,2,17,18,19,1,2,3,4,
18,1,2,3,17,18,1,2,33,4,17,1,2,33,4,4,33,3,65,66,1,2,3,4,
17,1,2,3,1,17,17,18,33,20,4,4,4,33,4,20,2,3,67,68,2,3,4,4,
17,1,2,3,1,17,17,18,19,20,20,20,20,33,20,1,2,3,65,66,3,4,4,20,
17,1,1,1,1,2,17,18,19,20,20,4,4,4,4,4,4,4,65,66,4,4,20,20,
1,17,17,1,1,1,1,17,18,19,20,20,20,20,20,20,20,20,67,68,20,20,19,20,
17,17,18,1,1,17,17,17,1,17,17,17,17,18,1,17,17,17,65,66,17,18,19,20,
17,18,19,17,17,17,18,19,17,1,1,1,1,17,1,17,17,18,65,66,17,18,19,20
</data>
 </layer>
 <layer id="4" name="Ground_objects_low" width="24" height="20">
  <data encoding="csv">
0,0,0,0,0,0,129,130,130,130,131,371,229,229,214,229,371,371,229,371,371,214,214,214,
0,147,141,141,148,0,137,138,138,138,139,0,245,245,246,245,0,0,245,211,211,230,230,230,
0,132,387,0,133,0,0,0,371,0,0,0,0,0,0,0,0,0,371,211,211,246,246,246,
0,132,0,0,133,0,0,0,371,371,371,142,142,371,371,0,0,0,0,211,211,467,0,371,
0,155,143,143,156,0,0,0,129,131,211,211,0,211,211,371,371,371,0,0,0,371,0,371,
0,0,0,0,0,0,0,0,137,139,211,211,0,211,211,0,129,131,211,211,0,214,371,371,
0,0,0,0,0,0,0,0,0,0,0,0,0,211,211,0,137,139,211,211,0,230,145,143,
0,0,0,0,0,0,371,371,371,371,371,0,0,211,211,0,0,371,371,371,0,246,134,0,
0,0,0,0,0,0,211,211,211,211,245,142,142,142,142,0,0,0,0,0,0,0,134,0,
371,371,371,371,0,0,211,211,211,211,0,0,0,0,0,0,0,0,0,0,0,0,134,0,
0,0,0,0,0,0,0,0,0,0,0,0,0,0,211,211,211,211,0,0,211,211,134,0,
0,0,0,0,0,0,0,0,0,0,0,0,0,0,211,211,211,211,371,467,371,211,153,142,
387,387,387,387,387,387,387,387,0,0,0,0,0,193,0,211,211,211,0,0,371,211,211,230,
244,212,212,212,212,212,212,387,142,142,142,142,142,142,230,211,211,211,0,0,371,0,211,230,
244,0,0,212,212,212,212,467,0,0,0,0,0,0,230,211,211,211,0,0,371,0,211,230,
244,0,0,212,212,212,212,387,0,0,0,0,0,0,230,211,211,211,0,0,0,0,211,230,
244,212,212,212,387,212,212,387,387,387,387,142,142,142,246,371,371,371,0,0,193,211,211,230,
244,212,212,212,387,212,212,387,0,0,0,0,0,0,0,0,371,371,0,0,0,211,211,230,
244,212,212,227,227,129,131,387,243,243,0,0,0,0,0,0,0,0,0,0,371,211,211,230,
243,387,387,243,243,137,139,387,387,387,387,387,371,371,371,371,371,371,0,0,371,371,371,246
</data>
 </layer>
 <layer id="5" name="Ground_objects_high" width="24" height="20">
  <data encoding="csv">
0,0,0,0,0,0,0,0,0,0,0,0,0,0,0,0,0,0,0,0,0,0,0,0,
0,0,0,0,0,0,0,0,0,0,0,0,0,0,0,0,0,0,0,0,0,0,0,0,
0,0,0,0,0,0,0,0,0,0,0,0,0,0,0,0,0,0,0,0,0,0,0,0,
0,0,0,0,0,0,0,0,0,0,0,0,0,0,0,0,0,0,0,0,0,0,0,0,
0,0,0,0,0,0,0,0,0,0,0,0,0,0,0,0,0,0,0,0,0,0,0,0,
0,0,0,0,0,0,0,0,0,0,0,422,0,0,0,0,0,0,0,422,0,0,0,0,
0,0,0,0,0,0,0,0,0,0,0,0,0,0,0,0,0,0,0,0,0,0,0,0,
0,0,0,0,0,0,0,0,0,0,229,0,0,0,0,0,0,0,0,0,0,0,0,0,
0,0,0,0,0,0,0,0,0,0,0,0,0,0,0,0,0,0,0,0,0,0,0,0,
0,0,0,0,0,0,0,0,0,0,0,0,0,0,0,0,0,0,0,0,0,0,0,0,
0,0,0,0,0,0,0,0,0,0,0,0,211,211,0,0,0,0,0,0,0,0,0,0,
0,0,0,0,0,0,0,0,0,0,0,0,211,211,0,0,0,0,0,0,0,0,0,214,
228,0,0,0,0,0,0,0,0,0,0,0,0,0,214,0,0,0,0,0,0,0,0,0,
0,0,0,0,0,0,0,0,0,0,0,0,0,0,0,0,0,0,0,0,0,0,0,0,
0,0,0,0,0,0,0,0,0,0,0,0,0,0,0,403,0,0,0,0,0,0,0,0,
0,0,0,0,0,403,0,0,0,0,0,0,0,0,0,0,0,0,0,0,0,0,0,0,
0,0,0,0,0,0,0,0,0,0,0,0,0,0,0,0,0,0,0,0,0,0,0,0,
0,0,0,0,0,0,0,0,227,227,0,0,0,0,0,0,0,0,0,0,0,0,0,0,
0,0,0,0,0,0,0,0,0,0,0,0,0,0,0,0,0,0,0,0,0,0,0,0,
0,0,0,0,0,0,0,0,0,0,0,0,0,0,0,0,0,0,0,0,0,0,0,0
</data>
 </layer>
</map>
