<?xml version="1.0" encoding="UTF-8"?>
<map version="1.10" tiledversion="1.11.2" orientation="orthogonal" renderorder="right-down" width="15" height="20" tilewidth="16" tileheight="16" infinite="0" nextlayerid="3" nextobjectid="1">
 <tileset firstgid="1" source="../tileSets/common/ledges_and_rocks.tsx"/>
 <tileset firstgid="65" source="../tileSets/common/signs.tsx"/>
 <tileset firstgid="71" source="../tileSets/common/wood_fence_variants.tsx"/>
 <tileset firstgid="83" source="../tileSets/ground.tsx"/>
 <tileset firstgid="211" source="../tileSets/flora_masked.tsx"/>
 <layer id="1" name="Ground" width="15" height="20">
  <data encoding="csv">
84,84,85,84,84,85,83,83,83,83,100,122,122,122,122,
100,100,101,100,100,83,83,99,99,83,132,90,90,90,122,
86,86,83,84,85,99,99,84,85,99,134,90,90,90,122,
106,106,86,100,101,86,83,100,101,85,132,90,90,90,122,
106,106,86,83,86,84,85,86,100,101,132,90,90,90,122,
106,106,84,85,86,100,101,86,83,83,132,90,90,90,122,
83,83,100,101,86,83,83,86,86,86,132,90,90,90,122,
83,83,84,85,83,86,86,83,83,83,132,90,90,90,122,
84,85,100,84,84,100,101,84,84,83,132,90,90,90,122,
100,101,85,100,100,101,84,85,100,101,134,90,90,90,122,
83,100,101,101,84,85,100,101,83,85,131,90,90,90,122,
84,84,84,84,100,101,100,101,100,101,131,90,90,90,122,
100,100,84,84,85,101,83,99,100,83,131,90,90,90,122,
100,101,84,100,83,100,99,99,100,101,131,90,90,90,122,
99,99,100,83,85,86,86,102,131,132,133,90,90,90,122,
99,84,83,100,101,84,85,102,131,132,133,90,90,90,122,
84,100,101,101,84,85,85,102,132,133,131,90,90,90,122,
83,84,85,85,85,84,85,86,131,131,90,90,90,90,122,
99,100,101,101,101,100,101,102,132,133,90,90,90,90,122,
83,83,100,101,83,83,83,83,131,131,122,122,122,122,122
</data>
 </layer>
 <layer id="2" name="Ground - Objects" width="15" height="20">
  <data encoding="csv">
243,243,243,243,243,243,243,243,243,243,243,0,0,0,0,
243,0,0,215,0,211,211,211,211,0,0,0,0,0,0,
243,0,0,243,0,211,211,211,211,0,0,0,0,0,0,
15,18,243,243,0,211,211,211,211,0,0,0,0,0,0,
0,4,0,0,0,211,211,211,211,0,0,0,0,0,0,
14,26,0,0,0,218,0,0,0,0,0,0,0,0,0,
243,243,0,0,0,0,0,0,0,0,0,0,0,0,0,
243,0,0,0,0,0,0,243,0,0,0,0,0,0,0,
0,0,243,243,243,243,243,243,0,0,0,0,0,0,0,
0,211,211,211,211,211,211,243,0,0,0,0,0,0,0,
243,211,211,211,211,211,211,211,0,0,0,0,0,0,0,
243,0,0,243,243,243,211,211,243,0,0,0,0,0,0,
243,237,0,243,0,243,211,211,243,0,0,0,0,0,0,
243,0,0,0,0,243,0,243,243,0,0,0,0,0,0,
243,0,211,211,211,0,0,243,0,0,0,0,0,0,0,
243,0,211,211,211,243,0,243,0,0,0,0,0,0,0,
243,0,259,259,259,259,0,215,0,0,0,0,0,0,0,
243,0,275,275,275,275,0,243,0,0,0,0,0,0,0,
243,0,0,0,0,0,0,243,0,0,0,0,0,0,0,
243,243,243,0,0,243,243,243,0,0,0,0,0,0,0
</data>
 </layer>
</map>
